X: 56
T:Kiss Me Quick Me Mither's Coming
% Nottingham Music Database
S:Geo. McDonald, via EF
M:4/4
L:1/4
K:D
B/2c/2|"D"d2 A2|FD F/2G/2A/2F/2|"C"E=c Ec|E=C E/2F/2G/2E/2|"D"d2 A2|F3/2E/2 DF\
|"C"G/2F/2E/2D/2 =CE|"D"DD D:||:
a/2g/2|"D"f3/2e/2 da|fd f/2g/2a/2f/2|"C"e3/2d/2 =cg|e=c e/2f/2g/2e/2|
"D"fd "A"ge|"D"af "A"ge|"G"g/2f/2e/2d/2 "A7"ce|"D"dd d:|


